static/content/icons/edit.svg

<?xml version="1.0" encoding="UTF-8" standalone="no"?>
<svg width="24px" height="24px" viewBox="0 0 24 24" version="1.1" xmlns="http://www.w3.org/2000/svg" xmlns:xlink="http://www.w3.org/1999/xlink" xmlns:sketch="http://www.bohemiancoding.com/sketch/ns">
    <!-- Generator: Sketch 3.2.2 (9983) - http://www.bohemiancoding.com/sketch -->
    <title>edit</title>
    <desc>Created with Sketch.</desc>
    <defs></defs>
    <g id="Segmented-Control" stroke="none" stroke-width="1" fill="none" fill-rule="evenodd" sketch:type="MSPage">
        <g id="Editor---Edit-13" sketch:type="MSArtboardGroup" transform="translate(-148.000000, -242.000000)">
            <g id="edit" sketch:type="MSLayerGroup" transform="translate(148.000000, 242.000000)">
                <path d="M22.5721125,8.902575 L10.7097375,20.75445 C10.7097375,20.75445 2.9596125,23.224575 2.9258625,23.2347 C2.8017375,22.738575 2.5482375,22.27095 2.1634875,21.886575 C1.7791125,21.5022 1.3114875,21.248325 0.8153625,21.1242 C0.8254875,21.09045 3.2903625,13.335075 3.2903625,13.335075 L15.1474875,1.47795 L22.5721125,8.902575 Z" id="Fill-7953" fill="#CDE4FD" sketch:type="MSShapeGroup"></path>
                <path d="M15.1473375,1.478025 L3.2902125,13.33515 C3.2902125,13.33515 0.8253375,21.090525 0.8152125,21.124275 C1.3015875,21.245775 1.7583375,21.49365 2.1385875,21.8649 L18.8362125,5.1669 L15.1473375,1.478025 Z" id="Fill-7954" fill="#FFFFFF" sketch:type="MSShapeGroup"></path>
                <path d="M23.086425,8.3882625 L22.556175,8.9185125 L15.13155,1.4938875 L15.6618,0.9636375 C16.833675,-0.2082375 18.7323,-0.2082375 19.90455,0.9636375 L23.086425,4.1458875 C24.2583,5.3177625 24.2583,7.2163875 23.086425,8.3882625" id="Fill-7955" fill="#CDE4FD" sketch:type="MSShapeGroup"></path>
                <path d="M2.9257875,23.2348125 L0.2917875,23.9900625 C0.2261625,24.0088125 0.1556625,23.9904375 0.1076625,23.9424375 C0.0592875,23.8944375 0.0412875,23.8235625 0.0600375,23.7583125 L0.8152875,21.1243125 C1.3057875,21.2540625 1.7696625,21.5113125 2.1544125,21.8956875 C2.5387875,22.2800625 2.7960375,22.7443125 2.9257875,23.2348125" id="Fill-7956" fill="#0C333D" sketch:type="MSShapeGroup"></path>
                <path d="M22.556175,8.9185125 L20.9808,10.4935125 L13.55655,3.0688875 L15.13155,1.4938875 L22.556175,8.9185125 Z" id="Fill-7957" fill="#B8DBFF" sketch:type="MSShapeGroup"></path>
                <path d="M20.9651625,10.509525 L10.7801625,20.694525 C10.6924125,20.782275 10.5547875,20.782275 10.4674125,20.694525 C10.3849125,20.6124 10.3612875,20.487525 10.4062875,20.37915 C10.6421625,19.83015 10.5390375,19.175025 10.0931625,18.729525 C9.6529125,18.28965 9.0116625,18.18315 8.4652875,18.406275 C8.3599125,18.454275 8.2099125,18.4374 8.1071625,18.33465 C8.0092875,18.2364 7.9774125,18.093525 8.0302875,17.971275 C8.2530375,17.4249 8.1469125,16.783275 7.7070375,16.3434 C7.2667875,15.902775 6.6251625,15.797025 6.0787875,16.019775 C5.9569125,16.07265 5.8136625,16.040775 5.7206625,15.947775 C5.6119125,15.8394 5.5950375,15.692775 5.6441625,15.584775 C5.8665375,15.0384 5.7607875,14.39715 5.3205375,13.956525 C4.8746625,13.511025 4.2199125,13.4079 3.6709125,13.643775 C3.5625375,13.68915 3.4376625,13.66515 3.3555375,13.58265 C3.2677875,13.495275 3.2677875,13.35765 3.3555375,13.2699 L13.5405375,3.0849 L20.9651625,10.509525 Z" id="Fill-7958" fill="#B8DCFF" sketch:type="MSShapeGroup"></path>
                <path d="M18.57855,8.1231 L8.276925,18.424725 C8.213175,18.414225 8.152425,18.379725 8.10705,18.33435 C8.000925,18.228225 7.980675,18.08535 8.03055,17.97135 C8.252925,17.424975 8.147175,16.78335 7.706925,16.3431 C7.266675,15.90285 6.62505,15.7971 6.078675,16.01985 C5.9643,16.06935 5.8218,16.0491 5.7153,15.942975 C5.6703,15.8976 5.6358,15.83685 5.6253,15.7731 L15.926925,5.471475 L18.57855,8.1231 Z" id="Fill-7959" fill="#CDE4FD" sketch:type="MSShapeGroup"></path>
                <path d="M19.90425,0.9634875 C18.732375,-0.2083875 16.83375,-0.2083875 15.661875,0.9634875 L15.13125,1.4941125 L18.8205,5.1829875 L21.472125,2.5313625 L19.90425,0.9634875 Z" id="Fill-7960" fill="#FFFFFF" sketch:type="MSShapeGroup"></path>
            </g>
        </g>
    </g>
</svg>

<svg width="24" height="24" viewBox="0 0 24 24" xmlns="http://www.w3.org/2000/svg"><title>edit</title><desc>Created with Sketch.</desc><g fill="none" fill-rule="evenodd"><path d="M22.572 8.903L10.71 20.753l-7.784 2.482c-.124-.496-.378-.964-.763-1.348-.384-.385-.852-.64-1.348-.763l2.475-7.79L15.147 1.48l7.425 7.425z" fill="#CDE4FD"/><path d="M15.147 1.478L3.29 13.335l-2.475 7.79c.487.12.943.37 1.324.74L18.834 5.167l-3.69-3.69z" fill="#fff"/><path d="M23.086 8.388l-.53.53-7.424-7.424.53-.53c1.172-1.172 3.07-1.172 4.243 0l3.18 3.182c1.173 1.172 1.173 3.07 0 4.242" fill="#CDE4FD"/><path d="M2.926 23.235l-2.634.755c-.066.02-.136 0-.184-.048-.05-.048-.067-.118-.048-.184l.755-2.634c.49.13.955.387 1.34.772.384.384.64.848.77 1.34" fill="#0C333D"/><path d="M22.556 8.92l-1.575 1.574L13.56 3.07l1.575-1.577 7.424 7.425z" fill="#B8DBFF"/><path d="M20.965 10.51L10.78 20.695c-.088.087-.225.087-.313 0-.082-.083-.106-.207-.06-.316.235-.55.132-1.206-.314-1.65-.44-.44-1.08-.548-1.628-.325-.105.048-.255.03-.358-.07-.098-.1-.13-.242-.077-.365.223-.545.117-1.187-.323-1.627-.44-.44-1.082-.546-1.628-.323-.124.053-.267.02-.36-.072-.11-.11-.126-.255-.077-.363.223-.547.117-1.188-.323-1.628-.445-.446-1.1-.55-1.65-.313-.107.045-.232.02-.314-.06-.088-.09-.088-.226 0-.314L13.54 3.085l7.425 7.425z" fill="#B8DCFF"/><path d="M18.58 8.123L8.276 18.425c-.064-.01-.125-.045-.17-.09-.106-.107-.126-.25-.076-.364.223-.544.117-1.186-.323-1.626-.44-.44-1.082-.546-1.628-.323-.117.05-.26.03-.366-.076-.045-.045-.08-.106-.09-.17L15.927 5.47l2.652 2.653z" fill="#CDE4FD"/><path d="M19.904.963c-1.172-1.17-3.07-1.17-4.242 0l-.53.53 3.688 3.69 2.652-2.652L19.904.965z" fill="#fff"/></g></svg>
